X:1
T:De Boer had maar enen schoen
C:traditionell
A:Deutschland
%%textfont Helvetica-Narrow 10pt
%%begintext align
B:Pijpersboek, Mart Heijmans, Muziekuitgeverij van Teeseling, Nijmegen, 1980
N:im buch nr 48
N:im buch ganz in G  1. ton d''
%%endtext
F:http://simonwascher.info/
Z:abc transcription Simon Wascher
M:3/4
L:1/4
K:G
d |:\
GBd | gdB | cAd | B/>c/ B/>A/ G/>d/ |\
GBd | gdB | cAd |1 G2d :|\
                [2 G2g ||
|:\
eee | edd/>e/ | dcc | edd/>g/ |\
eee | edd/>d/ | f/>e/ d/>c/ B/>A/ |1 G2 g :|\
                                  [2 G2 ||
%%wordsfont Times-Italic 11pt
W:aus Simon Waschers TradArchiv
